images/Traffic_Sign_GR_-_KOK_2009_-_P-44.svg

<svg width="460" height="655" fill="none" xmlns="http://www.w3.org/2000/svg"><path d="M460 0H0v655h460V0z" fill="#0C479D"/><path d="M53 505V150h355v355H53z" fill="#fff"/><path d="M74 488v-14h312v14H74z" fill="#000"/><path fill-rule="evenodd" clip-rule="evenodd" d="M185.518 396.903c8 1.411 21.261.918 31.931 1.373-1.942-1.409-26.33-29.457-38.672-46.782-11.28-15.757-2.099-3.089-27.475-52.924l23.893 5.305 2.475-3.392-2.551-2.599c-2.557-2.63-7.66-7.898-12.729-14.537-5.105-6.64-24.082-36.247-29.832-50.024-5.756-13.774-18.977-50.33-26.977-70.323-.959 12.782.685 56.699-3.09 80.355-3.735 23.662-7.468 44.455-17.415 73.458 1.641-1.068 13.951-10.344 23.969-13.971 0 0-9.528 45.412-17.677 72.772C86.181 393.09 78.371 411.213 65 435.216c0 0 5.712-.611 10.173-2.178 4.454-1.523 10.513-4.273 21.22-10.453 10.671-6.142 28.544-18.468 43.593-24.574 0 0 6.63 35.259 8.308 44.07 1.676 8.817 3.122 17.325 3.958 33.775h32.96s-18.059-42.397-21.566-51.325c-3.502-8.93-2.967-6.867-9.867-29.345 0 0 23.742.27 31.739 1.717z" fill="#000"/><path d="M388 323.421 300.022 213 212 323.421h13.051V476h48.847V367.989h52.204V476h48.847V323.421H388z" fill="#000"/></svg>

<svg width="460" height="655" viewBox="0 0 460 655" fill="none" xmlns="http://www.w3.org/2000/svg">
<path d="M460 0H0V655H460V0Z" fill="#0C479D"/>
<path d="M53 505V150H408V505H53Z" fill="white"/>
<path d="M74 488V474H386V488H74Z" fill="black"/>
<path fill-rule="evenodd" clip-rule="evenodd" d="M185.518 396.903C193.518 398.314 206.779 397.821 217.449 398.276C215.507 396.867 191.119 368.819 178.777 351.494C167.497 335.737 176.678 348.405 151.302 298.57L175.195 303.875L177.67 300.483C177.67 300.483 177.67 300.483 175.119 297.884C172.562 295.254 167.459 289.986 162.39 283.347C157.285 276.707 138.308 247.1 132.558 233.323C126.802 219.549 113.581 182.993 105.581 163C104.622 175.782 106.266 219.699 102.491 243.355C98.756 267.017 95.023 287.81 85.076 316.813C86.717 315.745 99.027 306.469 109.045 302.842C109.045 302.842 99.517 348.254 91.368 375.614C86.181 393.09 78.371 411.213 65 435.216C65 435.216 70.712 434.605 75.173 433.038C79.627 431.515 85.686 428.765 96.393 422.585C107.064 416.443 124.937 404.117 139.986 398.011C139.986 398.011 146.616 433.27 148.294 442.081C149.97 450.898 151.416 459.406 152.252 475.856H185.212C185.212 475.856 167.153 433.459 163.646 424.531C160.144 415.601 160.679 417.664 153.779 395.186C153.779 395.186 177.521 395.456 185.518 396.903Z" fill="black"/>
<path d="M388 323.421L300.022 213L212 323.421H225.051V476H273.898V367.989H326.102V476H374.949V323.421H388Z" fill="black"/>
</svg>
